images/icons/network.svg

<?xml version="1.0" encoding="UTF-8" standalone="no"?>
<svg width="80px" height="80px" viewBox="0 0 80 80" version="1.1" xmlns="http://www.w3.org/2000/svg" xmlns:xlink="http://www.w3.org/1999/xlink" xmlns:sketch="http://www.bohemiancoding.com/sketch/ns">
    <!-- Generator: Sketch 3.4 (15575) - http://www.bohemiancoding.com/sketch -->
    <title>Network</title>
    <desc>Created with Sketch.</desc>
    <defs></defs>
    <g id="Website" stroke="none" stroke-width="1" fill="none" fill-rule="evenodd" sketch:type="MSPage">
        <g id="Desktop-HD" sketch:type="MSArtboardGroup" transform="translate(-1000.000000, -1277.000000)" fill="#000000">
            <g id="Services" sketch:type="MSLayerGroup" transform="translate(100.000000, 928.000000)">
                <g id="Network-+-Don’t-let-our-profes-Copy-3-+-NETWORKING" transform="translate(640.000000, 349.000000)" sketch:type="MSShapeGroup">
                    <g id="Network" transform="translate(260.000000, 0.000000)">
                        <path d="M76.1172603,17.6635616 C78.2619178,17.6635616 80,15.9254795 80,13.7808219 C80,11.6361644 78.2619178,9.89808219 76.1172603,9.89808219 C74.0668493,9.89808219 72.4054795,11.4915068 72.2619178,13.5057534 L57.8345205,15.9879452 C57.0969863,14.5326027 55.7282192,13.4586301 54.0745205,13.1528767 L53.8663014,6.72109589 C55.1320548,6.19616438 56.0252055,4.95013699 56.0252055,3.49369863 C56.0252055,1.56273973 54.460274,0 52.5315068,0 C50.6027397,0 49.0378082,1.56383562 49.0378082,3.49369863 C49.0378082,5.12767123 50.1643836,6.48876712 51.68,6.87123288 L51.8860274,13.2065753 C50.6279452,13.5013699 49.5473973,14.24 48.8087671,15.2526027 L37.379726,7.92767123 C37.3808219,7.88383562 37.3928767,7.84438356 37.3928767,7.80054795 C37.3928767,5.65589041 35.6547945,3.91780822 33.510137,3.91780822 C31.3654795,3.91780822 29.6273973,5.65589041 29.6273973,7.80054795 C29.6273973,9.94520548 31.3654795,11.6832877 33.510137,11.6832877 C34.8076712,11.6832877 35.9473973,11.0421918 36.6531507,10.0646575 L47.8958904,17.270137 C47.820274,17.6284932 47.7764384,18 47.7764384,18.380274 C47.7764384,19.270137 48.0153425,20.0953425 48.4010959,20.8328767 L28.7550685,40.569863 C27.7994521,39.6591781 26.5139726,39.0926027 25.0893151,39.0926027 C24.0087671,39.0926027 23.0071233,39.4191781 22.1676712,39.9715068 L13.0191781,30.8821918 C13.7008219,30.1194521 14.1271233,29.1232877 14.1271233,28.019726 C14.1271233,25.6372603 12.1950685,23.7063014 9.81260274,23.7063014 C7.43013699,23.7063014 5.49808219,25.6372603 5.49808219,28.019726 C5.49808219,30.4021918 7.43013699,32.3353425 9.81260274,32.3353425 C10.2794521,32.3353425 10.72,32.2421918 11.139726,32.1052055 L20.6246575,41.5287671 C20.0832877,42.3627397 19.7621918,43.3523288 19.7621918,44.419726 C19.7621918,44.6838356 19.8027397,44.9380822 19.84,45.1923288 L7.28438356,49.8323288 C6.66849315,48.8372603 5.57589041,48.1665753 4.31890411,48.1665753 C2.3890411,48.1665753 0.824109589,49.7315068 0.824109589,51.660274 C0.824109589,53.5890411 2.3890411,55.1539726 4.31890411,55.1539726 C6.13808219,55.1539726 7.61534247,53.7589041 7.78082192,51.9824658 L20.6487671,47.2482192 C21.4071233,48.4482192 23.0136986,49.330411 24.109589,49.629589 L24.109589,57.490411 C23.0136986,57.9517808 21.6526027,59.2471233 21.6526027,60.7912329 C21.6526027,62.7221918 23.1879452,64.2860274 25.1189041,64.2860274 C27.0487671,64.2860274 28.6575342,62.7210959 28.6575342,60.7912329 C28.6575342,59.2471233 27.3983562,57.9517808 26.3024658,57.490411 L26.3024658,49.629589 C27.3983562,49.2646575 29.4180822,48.0427397 30.0767123,46.4241096 L47.8432877,50.0756164 C47.830137,50.2071233 47.789589,50.3342466 47.789589,50.470137 C47.789589,52.6147945 49.52,54.3528767 51.6646575,54.3528767 C51.9747945,54.3528767 52.269589,54.3068493 52.5578082,54.2389041 L56.2224658,61.4838356 C55.2109589,62.1852055 54.5457534,63.350137 54.5457534,64.6739726 C54.5457534,65.2438356 54.6739726,65.7808219 54.8942466,66.2684932 L49.3358904,71.8257534 C48.8635616,71.5890411 48.3386301,71.4421918 47.7742466,71.4421918 C45.8443836,71.4421918 44.2794521,73.0060274 44.2794521,74.9358904 C44.2794521,76.8657534 45.8454795,78.429589 47.7742466,78.429589 C49.7052055,78.429589 51.2690411,76.8646575 51.2690411,74.9358904 C51.2690411,74.3715068 51.1221918,73.8465753 50.8843836,73.3742466 L56.3276712,67.9309589 C56.9347945,68.3221918 57.6515068,68.5545205 58.4263014,68.5545205 C59.4991781,68.5545205 60.4690411,68.1205479 61.1715068,67.4180822 L71.3654795,74.2465753 C71.0564384,74.7682192 70.8668493,75.3687671 70.8668493,76.0186301 C70.8668493,77.949589 72.4317808,79.5134247 74.3616438,79.5134247 C76.2915068,79.5134247 77.8564384,77.9484932 77.8564384,76.0186301 C77.8564384,74.0887671 76.290411,72.5249315 74.3616438,72.5249315 C73.9156164,72.5249315 73.4915068,72.6158904 73.100274,72.7693151 L62.2213699,65.4816438 C62.2772603,65.219726 62.3090411,64.950137 62.3090411,64.6717808 C62.3090411,62.5271233 60.5709589,60.7890411 58.4263014,60.7890411 C58.3934247,60.7890411 58.3627397,60.7978082 58.3309589,60.7989041 L54.4591781,53.1452055 C55.1243836,52.4482192 55.5386301,51.5090411 55.5386301,50.4690411 C55.5386301,48.3243836 53.8005479,46.5863014 51.6558904,46.5863014 C50.4482192,46.5863014 49.3841096,47.1484932 48.6717808,48.0131507 L30.4,44.2663014 C30.3813699,43.6109589 30.2520548,42.9852055 30.0164384,42.409863 L49.8005479,22.5326027 C50.710137,23.2558904 51.8465753,23.7063014 53.100274,23.7063014 C54.2191781,23.7063014 55.2547945,23.3578082 56.1128767,22.7682192 L66.2169863,32.7605479 C65.9857534,33.2273973 65.8432877,33.7457534 65.8432877,34.3024658 C65.8432877,36.2323288 67.4082192,37.7961644 69.3369863,37.7961644 C71.2657534,37.7961644 72.8306849,36.2312329 72.8306849,34.3024658 C72.8306849,32.3736986 71.2657534,30.8087671 69.3369863,30.8087671 C68.7660274,30.8087671 68.2334247,30.9589041 67.7578082,31.2021918 L57.6164384,21.1747945 C58.1216438,20.3605479 58.4263014,19.4093151 58.4263014,18.3813699 C58.4263014,18.290411 58.4032877,18.2049315 58.4,18.1150685 L72.7331507,15.6493151 C73.3950685,16.8449315 74.6531507,17.6635616 76.1172603,17.6635616 L76.1172603,17.6635616 Z" id="Shape"></path>
                    </g>
                </g>
            </g>
        </g>
    </g>
</svg>

<svg width="80" height="80" viewBox="0 0 80 80" xmlns="http://www.w3.org/2000/svg"><title>Network</title><path d="M76.117 17.664c2.145 0 3.883-1.74 3.883-3.883 0-2.144-1.738-3.882-3.883-3.882-2.05 0-3.712 1.594-3.855 3.608l-14.427 2.482c-.738-1.455-2.107-2.53-3.76-2.835l-.21-6.432c1.267-.524 2.16-1.77 2.16-3.226C56.025 1.564 54.46 0 52.532 0c-1.93 0-3.494 1.564-3.494 3.494 0 1.634 1.126 2.995 2.642 3.377l.206 6.337c-1.258.294-2.34 1.033-3.077 2.046L37.38 7.928c0-.044.013-.084.013-.127 0-2.144-1.738-3.882-3.883-3.882S29.627 5.656 29.627 7.8s1.738 3.883 3.883 3.883c1.298 0 2.437-.64 3.143-1.618l11.243 7.205c-.076.358-.12.73-.12 1.11 0 .89.24 1.715.625 2.453L28.756 40.57c-.956-.91-2.24-1.477-3.666-1.477-1.08 0-2.083.326-2.922.88l-9.15-9.09c.683-.764 1.11-1.76 1.11-2.863 0-2.383-1.933-4.314-4.315-4.314-2.383 0-4.315 1.93-4.315 4.314 0 2.382 1.932 4.315 4.315 4.315.466 0 .907-.093 1.327-.23l9.485 9.424c-.542.833-.863 1.822-.863 2.89 0 .264.04.518.078.772l-12.556 4.64c-.616-.995-1.708-1.665-2.965-1.665-1.93 0-3.496 1.565-3.496 3.493 0 1.93 1.565 3.494 3.495 3.494 1.818 0 3.295-1.395 3.46-3.172l12.87-4.734c.757 1.2 2.364 2.082 3.46 2.382v7.86c-1.096.462-2.457 1.757-2.457 3.3 0 1.932 1.535 3.496 3.466 3.496 1.93 0 3.538-1.565 3.538-3.495 0-1.543-1.26-2.838-2.356-3.3v-7.86c1.096-.365 3.116-1.587 3.775-3.206l17.766 3.652c-.013.13-.053.258-.053.394 0 2.145 1.73 3.883 3.875 3.883.31 0 .605-.046.893-.114l3.664 7.244c-1.01.7-1.676 1.866-1.676 3.19 0 .57.128 1.107.348 1.594l-5.558 5.558c-.472-.237-.997-.384-1.562-.384-1.93 0-3.495 1.564-3.495 3.494 0 1.93 1.565 3.494 3.494 3.494 1.93 0 3.495-1.565 3.495-3.494 0-.564-.148-1.09-.386-1.562l5.444-5.443c.607.392 1.324.625 2.098.625 1.073 0 2.043-.434 2.746-1.137l10.193 6.83c-.31.52-.498 1.12-.498 1.77 0 1.932 1.565 3.495 3.495 3.495 1.93 0 3.494-1.565 3.494-3.494 0-1.93-1.566-3.495-3.494-3.495-.446 0-.87.09-1.262.244L62.22 65.48c.057-.262.09-.532.09-.81 0-2.145-1.74-3.883-3.884-3.883-.033 0-.063.008-.095.01l-3.87-7.655c.664-.697 1.08-1.636 1.08-2.676 0-2.146-1.74-3.884-3.884-3.884-1.208 0-2.272.562-2.984 1.427L30.4 44.266c-.02-.655-.148-1.28-.384-1.856L49.8 22.533c.91.723 2.047 1.173 3.3 1.173 1.12 0 2.155-.348 3.013-.938l10.104 9.993c-.23.467-.374.986-.374 1.542 0 1.93 1.565 3.494 3.494 3.494 1.93 0 3.494-1.565 3.494-3.494 0-1.928-1.564-3.493-3.493-3.493-.57 0-1.104.15-1.58.392l-10.14-10.027c.505-.814.81-1.766.81-2.794 0-.09-.024-.175-.027-.265l14.333-2.466c.662 1.195 1.92 2.014 3.384 2.014z" fill="#000" fill-rule="evenodd"/></svg>
